X:1
T:Nobody Like Jesus
T:Charles Hutchinson Gabriel
T:Nobody Like Jesus
T:Public Domain
T:Public Domain
T:Public Domain
C:Charles Hutchinson Gabriel
Z:Public Domain
%%score ( 1 2 ) ( 3 4 )
L:1/8
M:6/8
K:G
V:1 treble 
V:2 treble 
V:3 bass 
V:4 bass 
V:1
 [B,D] | [B,D][B,E][B,F] [B,A]2 [B,G] | [CF][CG][CA] [DB]2 z | [^CB][CE][CF] [CG][CF][CG] | %4
w: 1.~Some-|times se- cret sins creep|in- to my heart,|No- bo- dy sees them but|
w: 2.~Some-|times there are tears that|must not be shed,|No- bo- dy knows it but|
w: 3.~Some-|times an- gry thoughts are|al- most ex- pressed,|No- bo- dy hears them but|
w: 4.~Some-|times I am weak, and|wan- der a- stray,|No- bo- dy strength- ens like|
w: 5.~Some-|times shut a- way from|all held most dear,|No- bo- dy with me but|
 ([C-F][CE][C_E]) [A,CDd]2 [CD] | [B,D][B,E][B,F] [B,A]2 [B,G] | [CF][CG][CA] [DB]2 z | %7
w: Je- * * sus; But|I con- fess, He bids|them de- part, No-|
w: Je- * * sus; In|ness and grief He pil-|lows my head, No-|
w: Je- * * sus; His|tle re- straint soon has|them sup- pressed, No-|
w: Je- * * sus; He|tient- ly leads me back|to the way, No-|
w: Je- * * sus; My|no- thing lacks, no e-|vil I fear, No-|
 [Dd][DG][Ec] [DB]>[B,D][DB] | [CA]3 [B,G]2 z | [B,d][B,G][CA] [DB][Ec][DB] | [CE]3 [DE]2 z | %11
w: bo- dy cleans- es like Je-|sus; No-|bo- dy cleans- es like Je-|sus, No-|
w: bo- dy com- forts like Je-|sus; No-|bo- dy com- forts like Je-|sus, No-|
w: bo- dy qui- ets like Je-|sus; No-|bo- dy qui- ets like Je-|sus, No-|
w: bo- dy par- dons like Je-|sus; No-|bo- dy par- dons like Je-|sus, No-|
w: bo- dy loves me like Je-|sus; No-|bo- dy loves me like Je-|sus, No-|
 [Ec][DB][CEA] E[DF][^CG] | [CDA]3 D2 [CD] | [B,D][B,E][B,F] [B,A]2 [B,G] | [CF][CG][CA] [DB]2 z | %15
w: bo- dy cleans- es like Je-|But when I|fess, He bids them de-|part, No- bo- dy|
w: bo- dy com- forts like Je-|In sick- ness|grief He pil- lows my|head, No- bo- dy|
w: bo- dy qui- ets like Je-|His gen- tle|straint soon has them sup-|pressed, No- bo- dy|
w: bo- dy par- dons like Je-|He pa- tient-|leads me back to the|way, No- bo- dy|
w: bo- dy loves me like Je-|My souls no-|lacks, no e- vil I|fear, No- bo- dy|
 [Dd][DG][Ec] [DB]>[B,D][DB] | [CA]3 [B,G]2 |] %17
w: cleans- es like Je- sus. *||
w: com- forts like Je- sus. *||
w: qui- ets like Je- sus. *||
w: par- dons like Je- sus. *||
w: loves me like Je- sus. *||
V:2
 x | x6 | x6 | x6 | A3 x3 | x6 | x6 | x6 | x6 | x6 | x6 | x3 E x2 | x3 D2 x | x6 | x6 | x6 | x5 |] %17
w: ||||when|||||||sus;|con-|||||
w: ||||sick-|||||||sus;|and|||||
w: ||||gen-|||||||sus;|re-|||||
w: ||||pa-|||||||sus;|ly|||||
w: ||||souls|||||||sus;|thing|||||
V:3
 z | G,3 D,3 | A,2 D, (G,,D,B,,) | G,3 E,3 | (D,E,^E,) (F,/=E,/D,/C,/)(B,,/A,,/) | G,3 D,3 | %6
 A,2 D, (A,,E,D,) | B,,2 C, [D,-G,]3 | (F,E,[D,-F,]) [G,,D,]2 z | G,6 | %10
 ([C,G,][C,G,][C,G,]) ([B,,^G,][B,,G,][B,,G,]) | [A,,A,][B,,^G,][C,A,-] ^C,D,E, | %12
 (D,E,D,) ([C,A,][B,,G,])[A,,F,] | G,3 D,3 | A,2 D, (G,,E,D,) | B,,2 C, [D,-G,]3 | %16
 (F,E,[D,-F,]) [G,,D,]2 |] %17
V:4
 x | G,,6- | G,,3- G,2 x | A,,6 | x6 | G,,6- | G,,3 G,3 | G,3 x3 | D,3 x3 | x6 | x6 | x3 A,2 x | %12
 F,3 x3 | G,,6- | G,,3 G,3 | G,3- x3 | D,3 x2 |] %17

